app/src/assets/image/logos/google_maps.svg

<svg width="170" height="174" viewBox="0 0 170 174" xmlns="http://www.w3.org/2000/svg" xmlns:xlink="http://www.w3.org/1999/xlink"><title>New-Google-Maps-logo</title><defs><path id="a" d="M.06 151.388V.029h151.299v151.359H.06z"/></defs><g fill="none" fill-rule="evenodd"><g transform="translate(0 22)"><mask id="b" fill="#fff"><use xlink:href="#a"/></mask><path d="M0 135.868V12.971C0 5.828 5.796.029 12.942.029h122.893L0 135.868" fill="#20995B" mask="url(#b)"/><path d="M0 138.447v-2.579L135.835.029h2.579c7.146 0 12.945 5.799 12.945 12.942v2.582L15.521 151.388h-2.579C5.796 151.388 0 145.589 0 138.447" fill="#FBD84C" mask="url(#b)"/></g><path fill="#517AB0" d="M15.521 173.388l60.159-60.155 60.155 60.155H15.521"/><path d="M135.835 173.388l-61.077-61.077 15.524-15.52 61.077 61.077v2.579c0 7.142-5.799 12.941-12.945 12.941h-2.579" fill="#FFF"/><path fill="#BCBCB7" d="M151.359 157.868L91.2 97.709l60.159-60.156v120.315"/><path d="M26.997 38.762c7.701-3.526 17.335-2.088 23.591 3.681-1.957 1.995-3.967 3.943-5.977 5.884-6.256-6.209-18.009-3.263-20.939 4.949-3.835 8.08 2.536 18.704 11.552 18.82 5.899.688 11.784-3.263 13.028-9.14-4.121.008-8.234-.031-12.348.031-.116-2.536-.131-5.08-.077-7.624 6.881.178 13.933-.394 20.714.279.519 5.033.163 10.376-2.543 14.791-4.245 7.903-14.266 11.351-22.749 9.356-10.485-2.172-18.333-12.928-16.902-23.583.734-7.516 5.814-14.328 12.65-17.444" fill="#F1F1EE"/><path d="M123.964 27.518c-5.818 1.298-10.7 6.444-11.191 12.466-.611 5.607 2.672 11.297 7.697 13.772 5.449 2.882 12.602 1.999 17.153-2.166 4.248-3.758 5.795-10.248 3.576-15.5-2.626-6.572-10.421-10.315-17.235-8.572zm.959-26.796h4.92c12.262.702 24.253 6.693 31.686 16.549 4.867 6.225 7.583 13.952 8.195 21.8v2.913c-.287 15.213-10.022 27.701-18.451 39.534-9.462 13.371-18.208 27.943-20.631 44.423-.649 2.793.129 6.701-3.207 7.962-.784-.612-1.697-1.117-2.248-1.97-.989-9.214-3.29-18.314-7.222-26.728-4.46-9.803-10.67-18.662-16.979-27.332-3.84-5.199-7.463-10.58-10.459-16.315-4.708-8.595-6.459-18.752-4.535-28.395 1.578-7.614 5.562-14.67 11.078-20.126C104.503 5.77 114.554 1.371 124.923.722z" fill="#CC463E"/><path d="M123.964 27.518c6.814-1.743 14.609 2 17.235 8.572 2.219 5.252.672 11.742-3.576 15.5-4.551 4.165-11.704 5.048-17.153 2.166-5.025-2.475-8.308-8.165-7.697-13.772.491-6.022 5.373-11.168 11.191-12.466" fill="#6D2A28"/></g></svg>

<?xml version="1.0" encoding="UTF-8"?>
<svg width="170px" height="174px" viewBox="0 0 170 174" version="1.1" xmlns="http://www.w3.org/2000/svg" xmlns:xlink="http://www.w3.org/1999/xlink">
    <!-- Generator: Sketch 43.2 (39069) - http://www.bohemiancoding.com/sketch -->
    <title>New-Google-Maps-logo</title>
    <desc>Created with Sketch.</desc>
    <defs>
        <polygon id="path-1" points="0.06 151.388 0.06 0.029 151.359 0.029 151.359 151.388 0.06 151.388"></polygon>
    </defs>
    <g id="Page-1" stroke="none" stroke-width="1" fill="none" fill-rule="evenodd">
        <g id="New-Google-Maps-logo">
            <g id="Group-12" transform="translate(0.000000, 22.000000)">
                <mask id="mask-2" fill="white">
                    <use xlink:href="#path-1"></use>
                </mask>
                <g id="Clip-10"></g>
                <path d="M0,135.868 L0,12.971 C0,5.828 5.796,0.029 12.942,0.029 L135.835,0.029 L0,135.868" id="Fill-9" fill="#20995B" mask="url(#mask-2)"></path>
                <path d="M0,138.447 L0,135.868 L135.835,0.029 L138.414,0.029 C145.56,0.029 151.359,5.828 151.359,12.971 L151.359,15.553 L15.521,151.388 L12.942,151.388 C5.796,151.388 0,145.589 0,138.447" id="Fill-11" fill="#FBD84C" mask="url(#mask-2)"></path>
            </g>
            <polyline id="Fill-13" fill="#517AB0" points="15.521 173.388 75.68 113.233 135.835 173.388 15.521 173.388"></polyline>
            <path d="M135.835,173.388 L74.758,112.311 L90.282,96.791 L151.359,157.868 L151.359,160.447 C151.359,167.589 145.56,173.388 138.414,173.388 L135.835,173.388" id="Fill-14" fill="#FFFFFF"></path>
            <polyline id="Fill-15" fill="#BCBCB7" points="151.359 157.868 91.2 97.709 151.359 37.553 151.359 157.868"></polyline>
            <path d="M26.997,38.762 C34.698,35.236 44.332,36.674 50.588,42.443 C48.631,44.438 46.621,46.386 44.611,48.327 C38.355,42.118 26.602,45.064 23.672,53.276 C19.837,61.356 26.208,71.98 35.224,72.096 C41.123,72.784 47.008,68.833 48.252,62.956 C44.131,62.964 40.018,62.925 35.904,62.987 C35.788,60.451 35.773,57.907 35.827,55.363 C42.708,55.541 49.76,54.969 56.541,55.642 C57.06,60.675 56.704,66.018 53.998,70.433 C49.753,78.336 39.732,81.784 31.249,79.789 C20.764,77.617 12.916,66.861 14.347,56.206 C15.081,48.69 20.161,41.878 26.997,38.762" id="Fill-16" fill="#F1F1EE"></path>
            <path d="M123.964,27.518 C118.146,28.816 113.264,33.962 112.773,39.984 C112.162,45.591 115.445,51.281 120.47,53.756 C125.919,56.638 133.072,55.755 137.623,51.59 C141.871,47.832 143.418,41.342 141.199,36.09 C138.573,29.518 130.778,25.775 123.964,27.518 Z M124.923,0.722 L129.843,0.722 C142.105,1.424 154.096,7.415 161.529,17.271 C166.396,23.496 169.112,31.223 169.724,39.071 L169.724,41.984 C169.437,57.197 159.702,69.685 151.273,81.518 C141.811,94.889 133.065,109.461 130.642,125.941 C129.993,128.734 130.771,132.642 127.435,133.903 C126.651,133.291 125.738,132.786 125.187,131.933 C124.198,122.719 121.897,113.619 117.965,105.205 C113.505,95.402 107.295,86.543 100.986,77.873 C97.146,72.674 93.523,67.293 90.527,61.558 C85.819,52.963 84.068,42.806 85.992,33.163 C87.57,25.549 91.554,18.493 97.07,13.037 C104.503,5.77 114.554,1.371 124.923,0.722 L124.923,0.722 Z" id="Fill-17" fill="#CC463E"></path>
            <path d="M123.964,27.518 C130.778,25.775 138.573,29.518 141.199,36.09 C143.418,41.342 141.871,47.832 137.623,51.59 C133.072,55.755 125.919,56.638 120.47,53.756 C115.445,51.281 112.162,45.591 112.773,39.984 C113.264,33.962 118.146,28.816 123.964,27.518" id="Fill-18" fill="#6D2A28"></path>
        </g>
    </g>
</svg>
